emoticon-tongue.svg

<svg fill="currentColor" viewBox="0 0 24 24"><path d="M12 2A10 10 0 0 0 2 12a10 10 0 0 0 10 10 10 10 0 0 0 10-10A10 10 0 0 0 12 2m-4.73 9c-.17-.29-.27-.64-.27-1 0-1.11.89-2 2-2a2 2 0 0 1 2 2c0 .36-.1.71-.27 1-.34-.6-.99-1-1.73-1s-1.39.4-1.73 1M16 15h-1c0 2-.9 3-2 3s-2-1-2-3H8v-2h8zm.73-4c-.34-.6-.99-1-1.73-1s-1.39.4-1.73 1c-.17-.29-.27-.64-.27-1 0-1.11.89-2 2-2a2 2 0 0 1 2 2c0 .36-.1.71-.27 1"/></svg>

<svg  viewBox="0 0 24 24" fill="currentColor"><path  d="M12,2A10,10 0 0,0 2,12A10,10 0 0,0 12,22A10,10 0 0,0 22,12A10,10 0 0,0 12,2M7.27,11C7.1,10.71 7,10.36 7,10C7,8.89 7.89,8 9,8A2,2 0 0,1 11,10C11,10.36 10.9,10.71 10.73,11C10.39,10.4 9.74,10 9,10C8.26,10 7.61,10.4 7.27,11M16,15H15C15,17 14.1,18 13,18C11.9,18 11,17 11,15H8V13H16V15M16.73,11C16.39,10.4 15.74,10 15,10C14.26,10 13.61,10.4 13.27,11C13.1,10.71 13,10.36 13,10C13,8.89 13.89,8 15,8A2,2 0 0,1 17,10C17,10.36 16.9,10.71 16.73,11Z"/></svg>
